app/assets/images/payment_icons/xrp.svg

<svg width="38" height="24" viewBox="0 0 38 24" fill="none" xmlns="http://www.w3.org/2000/svg" role="img" aria-labelledby="pi-xrp">
<rect width="38" height="24" fill="white"/>
<path opacity="0.07" d="M35 0H3C1.3 0 0 1.3 0 3V21C0 22.7 1.4 24 3 24H35C36.7 24 38 22.7 38 21V3C38 1.3 36.6 0 35 0Z" fill="black"/>
<path d="M35 1C36.1 1 37 1.9 37 3V21C37 22.1 36.1 23 35 23H3C1.9 23 1 22.1 1 21V3C1 1.9 1.9 1 3 1H35Z" fill="white"/>
<circle cx="19" cy="12" r="8" fill="black"/>
<mask id="mask0_3_355" style="mask-type:alpha" maskUnits="userSpaceOnUse" x="11" y="4" width="16" height="16">
<circle cx="19" cy="12" r="8" fill="white"/>
</mask>
<g mask="url(#mask0_3_355)">
<path fill-rule="evenodd" clip-rule="evenodd" d="M22.7734 8.63159H21.6779L19.9445 10.4276C19.4226 10.9691 18.5756 10.9691 18.052 10.4276L16.3203 8.63159H15.2248L17.5051 10.9959C18.329 11.8519 19.6675 11.8519 20.4931 10.9959L22.7734 8.63159ZM15.2105 15.208H16.306L18.0555 13.3959C18.5774 12.8544 19.4244 12.8544 19.948 13.3959L21.694 15.208H22.7895L20.4949 12.8276C19.6693 11.9716 18.3307 11.9716 17.5051 12.8276L15.2105 15.208Z" fill="white"/>
</g>
</svg>

<svg width="38" height="24" fill="none" xmlns="http://www.w3.org/2000/svg" aria-labelledby="pi-xrp"><path fill="#fff" d="M0 0h38v24H0z"/><path opacity=".07" d="M35 0H3C1.3 0 0 1.3 0 3v18c0 1.7 1.4 3 3 3h32c1.7 0 3-1.3 3-3V3c0-1.7-1.4-3-3-3Z" fill="#000"/><path d="M35 1c1.1 0 2 .9 2 2v18c0 1.1-.9 2-2 2H3c-1.1 0-2-.9-2-2V3c0-1.1.9-2 2-2h32Z" fill="#fff"/><circle cx="19" cy="12" r="8" fill="#000"/><mask id="a" style="mask-type:alpha" maskUnits="userSpaceOnUse" x="11" y="4" width="16" height="16"><circle cx="19" cy="12" r="8" fill="#fff"/></mask><g mask="url(#a)"><path fill-rule="evenodd" clip-rule="evenodd" d="M22.773 8.632h-1.095l-1.733 1.796a1.305 1.305 0 0 1-1.893 0L16.32 8.632h-1.095l2.28 2.364a2.06 2.06 0 0 0 2.988 0l2.28-2.364Zm-7.563 6.576h1.096l1.75-1.812a1.305 1.305 0 0 1 1.892 0l1.746 1.812h1.096l-2.295-2.38a2.061 2.061 0 0 0-2.99 0l-2.294 2.38Z" fill="#fff"/></g></svg>
